icons/lines/folder-open.svg

<svg xmlns="http://www.w3.org/2000/svg" width="24" height="24" viewBox="0 0 24 24" fill="none" stroke="currentColor" stroke-width="2" stroke-linecap="round" stroke-linejoin="round" >
  <path d="M21.6698 14.3L21.2698 19.3C21.1198 20.83 20.9998 22 18.2898 22H5.70977C2.99977 22 2.87977 20.83 2.72977 19.3L2.32977 14.3C2.24977 13.47 2.50977 12.7 2.97977 12.11C2.98977 12.1 2.98977 12.1 2.99977 12.09C3.54977 11.42 4.37977 11 5.30977 11H18.6898C19.6198 11 20.4398 11.42 20.9798 12.07C20.9898 12.08 20.9998 12.09 20.9998 12.1C21.4898 12.69 21.7598 13.46 21.6698 14.3Z" stroke-miterlimit="10"/>
  <path d="M3.5 11.43V6.28003C3.5 2.88003 4.35 2.03003 7.75 2.03003H9.02C10.29 2.03003 10.58 2.41003 11.06 3.05003L12.33 4.75003C12.65 5.17003 12.84 5.43003 13.69 5.43003H16.24C19.64 5.43003 20.49 6.28003 20.49 9.68003V11.47" stroke-miterlimit="10"/>
  <path d="M9.43018 17H14.5702" stroke-miterlimit="10"/>
  </svg>

<svg xmlns="http://www.w3.org/2000/svg" width="24" height="24" viewBox="0 0 24 24" fill="none" stroke="currentColor" stroke-width="2" stroke-linecap="round" stroke-linejoin="round">
  <path d="M21.27 19.3c-.15 1.53-.27 2.7-2.98 2.7H5.71C3 22 2.88 20.83 2.73 19.3l-.4-5A3 3 0 0 1 5.31 11h13.38a3 3 0 0 1 2.98 3.3z" />
  <path d="M3.5 11.43V6.28c0-3.4.85-4.25 4.25-4.25h1.27c1.27 0 1.56.38 2.04 1.02l1.27 1.7c.32.42.51.68 1.36.68h2.55c3.4 0 4.25.85 4.25 4.25v1.79" />
  <path d="M9.43 17h5.14" />
</svg>
